public/avatar/shoe/49.svg

<svg xmlns:xlink="http://www.w3.org/1999/xlink" height="38.3" width="36.05" xmlns="http://www.w3.org/2000/svg"><use height="18.15" transform="translate(8.6 14.2)" width="24.35" xlink:href="#a"/><defs><g id="a"><path d="m8.3 9-15.85 6.4-6.95-3.7V9.2l11.4-5.25L5.45 5.1l.1.05q.6.05 2.6 1.45L8.3 9" fill="#cc9f70" fill-rule="evenodd" transform="translate(15.2 .65)"/><path d="m2.95 14.15-3.8-1.65.3-2.35 3.5.75v3.25" fill="#cc9f70" fill-rule="evenodd" transform="translate(15.2 .65)"/><path d="m5.8 9.3-.05 3.65-2.8 1.4-.25-3.55 3.1-1.5" fill="#ab7941" fill-rule="evenodd" transform="translate(15.2 .65)"/><path d="m-2.4 16.95-3.2-2.45 1.35-1.95 1.75.3.1 4.1" fill="#cc9f70" fill-rule="evenodd" transform="translate(15.2 .65)"/><path d="m8.3 9-15.85 6.4-.1-2.25L8 6.95 8.3 9" fill="#ab7941" fill-rule="evenodd" transform="translate(15.2 .65)"/><path d="m-4.05-.15-.45.1.75.75 2.1 1.85q2.35 3 7.4 3H6Q3.65 7.7 1.85 8.3q-1.5.5-4.4 2-1 .3-1.1.5l-5.6.35-.75.2-.05-.45q-4.15.1-3.05-3Q-10.8 1-4.05-.15" fill="#fff" fill-rule="evenodd" transform="translate(15.2 .65)"/><path d="m-4.05-.15 2.25-.2h.1Q6.9-.6 7.25 4.8l-.1.7q-.65 1.65-4.9 3.7-4.8 2.3-9.1 2.95-2.75.35-3.15-.8l.75-.2 5.6-.35q.1-.2 1.1-.5 2.9-1.5 4.4-2Q3.65 7.7 6 5.55h-.25q-5.05 0-7.4-3L-3.75.7l-.75-.75.45-.1" fill="#e1e1e1" fill-rule="evenodd" transform="translate(15.2 .65)"/><path d="m.2 15.1-2.6 1.85-.3-4.25 2.9-.95v3.35" fill="#ab7941" fill-rule="evenodd" transform="translate(15.2 .65)"/><path d="M-7.9 5.4q.55-.2.2 1.4L-9.3 9q-.5.8-.8 1.9-1.15-1.2-.65-2.5l1.2-1.7 1.65-1.3" fill="#c2c2c2" fill-rule="evenodd" transform="translate(15.2 .65)"/><path d="M-3 6.9q.85 1.75 1.15 4.8.05.95-.85 1.15-.95.15-.85-.6.3-1.45 0-2.85-.3-1.85-1.3-2.75-.95-.8-1.95-.4l-.9.55q-.2-2.1-1.25-2.55-2.25-1.1-2.4.55-.55-.7.35-1.3 1.05-.75 3.5.05Q-4.1 4.65-3 6.9" fill="#b07b42" fill-rule="evenodd" transform="translate(15.2 .65)"/><path d="m-14.45 9.4 6.8 3.75.1 2.25-6.95-3.7.05-2.3" fill="#e0be9b" fill-rule="evenodd" transform="translate(15.2 .65)"/><path d="m5.8 10.3.3 2.75-3.15 1.3-2.6-1.3.15 2.4L-2.35 17l-3.25-2.5-2.25.95-6.85-4.4.25-1.65.75-1.35.65-2.05q1.5-2.05 4.55-4.25Q-4.55-.9 3.25.1q5.4.8 4.2 5.65l1.2.75-.35 2.55-2.5 1.25Z" fill="none" stroke="#373737" stroke-linecap="round" stroke-linejoin="round" transform="translate(15.2 .65)"/></g></defs></svg>

<?xml version="1.0" encoding="UTF-8" standalone="no"?>
<svg xmlns:xlink="http://www.w3.org/1999/xlink" height="38.3px" width="36.05px" xmlns="http://www.w3.org/2000/svg">
  <g transform="matrix(1.0, 0.0, 0.0, 1.0, 23.8, 14.85)">
    <use height="18.15" transform="matrix(1.0, 0.0, 0.0, 1.0, -15.2, -0.65)" width="24.35" xlink:href="#shape0"/>
  </g>
  <defs>
    <g id="shape0" transform="matrix(1.0, 0.0, 0.0, 1.0, 15.2, 0.65)">
      <path d="M8.3 9.0 L-7.55 15.4 -14.5 11.7 -14.5 9.2 -3.1 3.95 5.45 5.1 5.55 5.15 Q6.15 5.2 8.15 6.6 L8.3 9.0" fill="#cc9f70" fill-rule="evenodd" stroke="none"/>
      <path d="M2.95 14.15 L-0.85 12.5 -0.55 10.15 2.95 10.9 2.95 14.15" fill="#cc9f70" fill-rule="evenodd" stroke="none"/>
      <path d="M5.8 9.3 L5.75 12.95 2.95 14.35 2.7 10.8 5.8 9.3" fill="#ab7941" fill-rule="evenodd" stroke="none"/>
      <path d="M-2.4 16.95 L-5.6 14.5 -4.25 12.55 -2.5 12.85 -2.4 16.95" fill="#cc9f70" fill-rule="evenodd" stroke="none"/>
      <path d="M8.3 9.0 L-7.55 15.4 -7.65 13.15 8.0 6.95 8.3 9.0" fill="#ab7941" fill-rule="evenodd" stroke="none"/>
      <path d="M-4.05 -0.15 L-4.5 -0.05 -3.75 0.7 -1.65 2.55 Q0.7 5.55 5.75 5.55 L6.0 5.55 Q3.65 7.7 1.85 8.3 0.35 8.8 -2.55 10.3 -3.55 10.6 -3.65 10.8 L-9.25 11.15 -10.0 11.35 -10.05 10.9 Q-14.2 11.0 -13.1 7.9 -10.8 1.0 -4.05 -0.15" fill="#ffffff" fill-rule="evenodd" stroke="none"/>
      <path d="M-4.05 -0.15 L-1.8 -0.35 -1.7 -0.35 Q6.9 -0.6 7.25 4.8 L7.15 5.5 Q6.5 7.15 2.25 9.2 -2.55 11.5 -6.85 12.15 -9.6 12.5 -10.0 11.35 L-9.25 11.15 -3.65 10.8 Q-3.55 10.6 -2.55 10.3 0.35 8.8 1.85 8.3 3.65 7.7 6.0 5.55 L5.75 5.55 Q0.7 5.55 -1.65 2.55 L-3.75 0.7 -4.5 -0.05 -4.05 -0.15" fill="#e1e1e1" fill-rule="evenodd" stroke="none"/>
      <path d="M0.2 15.1 L-2.4 16.95 -2.7 12.7 0.2 11.75 0.2 15.1" fill="#ab7941" fill-rule="evenodd" stroke="none"/>
      <path d="M-7.9 5.4 Q-7.35 5.2 -7.7 6.8 L-9.3 9.0 Q-9.8 9.8 -10.1 10.9 -11.25 9.7 -10.75 8.4 L-9.55 6.7 -7.9 5.4" fill="#c2c2c2" fill-rule="evenodd" stroke="none"/>
      <path d="M-3.0 6.9 Q-2.15 8.65 -1.85 11.7 -1.8 12.65 -2.7 12.85 -3.65 13.0 -3.55 12.25 -3.25 10.8 -3.55 9.4 -3.85 7.55 -4.85 6.65 -5.8 5.85 -6.8 6.25 L-7.7 6.8 Q-7.9 4.7 -8.95 4.25 -11.2 3.15 -11.35 4.8 -11.9 4.1 -11.0 3.5 -9.95 2.75 -7.5 3.55 -4.1 4.65 -3.0 6.9" fill="#b07b42" fill-rule="evenodd" stroke="none"/>
      <path d="M-14.45 9.4 L-7.65 13.15 -7.55 15.4 -14.5 11.7 -14.45 9.4" fill="#e0be9b" fill-rule="evenodd" stroke="none"/>
      <path d="M5.8 10.3 L6.1 13.05 2.95 14.35 0.35 13.05 0.5 15.45 -2.35 17.0 -5.6 14.5 -7.85 15.45 -14.7 11.05 -14.45 9.4 -13.7 8.05 -13.05 6.0 Q-11.55 3.95 -8.5 1.75 -4.55 -0.9 3.25 0.1 8.65 0.9 7.45 5.75 L8.65 6.5 8.3 9.05 5.8 10.3 Z" fill="none" stroke="#373737" stroke-linecap="round" stroke-linejoin="round" stroke-width="1.0"/>
    </g>
  </defs>
</svg>
